static/assets/images/networks/rootstock.svg

<svg width="256" height="256" viewBox="0 0 256 256" fill="none" xmlns="http://www.w3.org/2000/svg">
<path fill-rule="evenodd" clip-rule="evenodd" d="M256 128C256 198.692 198.692 256 128 256C57.3075 256 0 198.692 0 128C0 57.3075 57.3075 0 128 0C198.692 0 256 57.3075 256 128Z" fill="black"/>
<path d="M128 87.5C141.807 87.5 153 76.3071 153 62.5C153 48.6929 141.807 37.5 128 37.5C114.193 37.5 103 48.6929 103 62.5C103 76.3071 114.193 87.5 128 87.5Z" fill="#FF931E"/>
<path d="M197.945 139.55C185.928 132.696 170.544 136.754 163.626 148.658C161.26 152.716 160.167 157.226 160.258 161.645C160.531 172.647 150.518 178.328 141.051 172.647C140.687 172.466 140.323 172.196 139.868 172.015C130.31 166.695 130.31 155.422 139.868 150.192C147.697 145.953 153.067 137.747 153.067 128.278C153.067 128.097 153.067 127.917 153.067 127.737C152.794 116.734 162.807 111.053 172.274 116.734C179.83 121.334 189.661 121.694 197.853 117.005C209.869 110.151 213.966 94.9102 207.047 83.0063C200.129 71.1023 184.745 67.0441 172.729 73.8979C164.537 78.5874 159.985 87.2448 160.167 95.9925C160.44 106.994 150.427 112.676 141.051 106.994C137.228 104.65 132.767 103.297 127.943 103.297C123.118 103.297 118.658 104.65 114.835 106.904C105.368 112.496 95.4456 106.814 95.7187 95.9022C95.9008 87.0645 91.3494 78.4972 83.1568 73.8078C71.1409 66.9539 55.757 71.1023 48.8388 83.0063C41.9206 94.9102 46.108 110.151 58.1238 117.005C66.3164 121.694 76.1475 121.243 83.7029 116.734C93.17 111.053 103.092 116.734 102.819 127.737C102.819 127.917 102.819 128.097 102.819 128.278C102.819 137.747 108.099 145.953 116.018 150.192C125.576 155.512 125.576 166.785 116.018 172.015C115.654 172.196 115.29 172.466 114.926 172.647C105.459 178.238 95.5367 172.556 95.8098 161.645C95.9008 157.226 94.8084 152.716 92.4417 148.568C85.5235 136.664 70.1396 132.606 58.1238 139.46C46.108 146.494 42.0117 161.735 48.9299 173.639C55.848 185.543 71.232 189.601 83.2478 182.747C83.4298 182.657 83.5209 182.567 83.7029 182.476C93.17 176.795 103.092 182.476 102.819 193.479C102.819 193.659 102.819 193.84 102.819 194.11C102.819 207.817 114.107 219 127.943 219C141.779 219 153.067 207.817 153.067 194.11C153.067 193.93 153.067 193.749 153.067 193.569C152.794 182.567 162.807 176.886 172.274 182.567C172.456 182.657 172.638 182.747 172.821 182.928C184.836 189.781 200.22 185.723 207.138 173.819C214.056 161.645 209.96 146.404 197.945 139.55Z" fill="#FF931E"/>
</svg>

<svg xmlns="http://www.w3.org/2000/svg" fill="none" viewBox="0 0 256 256"><path fill="#000" fill-rule="evenodd" d="M256 128c0 70.692-57.308 128-128 128S0 198.692 0 128 57.308 0 128 0s128 57.308 128 128" clip-rule="evenodd"/><path fill="#FF931E" d="M128 87.5c13.807 0 25-11.193 25-25s-11.193-25-25-25-25 11.193-25 25 11.193 25 25 25"/><path fill="#FF931E" d="M197.945 139.55c-12.017-6.854-27.401-2.796-34.319 9.108a24.76 24.76 0 0 0-3.368 12.987c.273 11.002-9.74 16.683-19.207 11.002-.364-.181-.728-.451-1.183-.632-9.558-5.32-9.558-16.593 0-21.823 7.829-4.239 13.199-12.445 13.199-21.914v-.541c-.273-11.003 9.74-16.684 19.207-11.003 7.556 4.6 17.387 4.96 25.579.271 12.016-6.854 16.113-22.095 9.194-33.999s-22.302-15.962-34.318-9.108c-8.192 4.69-12.744 13.347-12.562 22.095.273 11.001-9.74 16.683-19.116 11.001a24.93 24.93 0 0 0-13.108-3.697c-4.825 0-9.285 1.353-13.108 3.607-9.467 5.592-19.39-.09-19.116-11.002.182-8.838-4.37-17.405-12.562-22.094-12.016-6.854-27.4-2.706-34.318 9.198s-2.731 27.145 9.285 33.999c8.192 4.689 18.023 4.238 25.579-.271 9.467-5.681 19.389 0 19.116 11.003v.541c0 9.469 5.28 17.675 13.199 21.914 9.558 5.32 9.558 16.593 0 21.823-.364.181-.728.451-1.092.632-9.467 5.591-19.39-.091-19.116-11.002.09-4.419-1.002-8.929-3.368-13.077-6.918-11.904-22.302-15.962-34.318-9.108-12.016 7.034-16.112 22.275-9.194 34.179s22.302 15.962 34.318 9.108c.182-.09.273-.18.455-.271 9.467-5.681 19.389 0 19.116 11.003v.631c0 13.707 11.288 24.89 25.124 24.89s25.124-11.183 25.124-24.89v-.541c-.273-11.002 9.74-16.683 19.207-11.002.182.09.364.18.547.361 12.015 6.853 27.399 2.795 34.317-9.109 6.918-12.174 2.822-27.415-9.193-34.269"/></svg>
